X:0703
T:Ah! Ca! Ira.
M:2/4
L:1/16
Q:1/4=96
I: S || ||S  DC
P:ABA % Aird uses a da capo
Z:Jack Campin * www.campin.me.uk * 2009
K:G
P:A
 G2GA | G2GA  G2GA|G4   GABc | d2ed   d<cc<B|BA2z
 G2GA | G2GA  G2GA|G4   GABc |(dBec)  B2A2  |G4||
P:B
 B2dB |(cBAG) FGAF|G2D2 B2dB | cAGF   GAB^c |d4
 d2de | d2de  d2de|d4   defg | a2ba   aggf  |f2e2
 d2de | d2de  d2de|d4   defg |(afbg)  f2e2  |d4
(dcBA)|^G2G2``G2G2|A4  (cBAG)| F2F2```F2F2  |G2G2
`A2B2 |(c2cB) c2d2|B2G2`A2B2 |(c2cB) (AGFE) |D4||
% original layout:
% G2GA ||G2GA  G2GA|G4   GABc | d2ed   d<cc<B|BA2z
% G2GA | G2GA  G2GA|G4   GABc |(dBec)  B2A2  |G4||
% B2dB |(cBAG) FGAF|G2D2 B2dB | cAGF   GAB^c |d4
% d2de | d2de  d2de|d4   defg | a2ba   aggf  |f2e2
% d2de | d2de  d2de|d4   defg |(afbg)  f2e2  |d4
%(dcBA)|^G2G2``G2G2|A4  (cBAG)| F2F2```F2F2  |G2G2
%`A2B2 |(c2cB) c2d2|B2G2`A2B2 |(c2cB) (AGFE) |D4 G2GA"Da Capo"||
<end>
<start>
